X:177
T:Miss Johnson's March
M:2/4
L:1/8
B:Thompson's Compleat Collection of 200 Favourite Country Dances, vol. 2 (London, 1765)
Z:Transcribed and edited by Flynn Titford-Mock, 2007
Z:abc's:AK/Fiddler's Companion
K:A
a A2 a | "tr"g>(f/2g/4) af | e/a/g/f/ e/d/c/B/ | cB A2 | a A2 a | "tr"g>(f/2e/4) ba | gf/e/ "tr"f2 | e4 :|
|: e E2 e | "tr"^d>(c/2d/4) eE | =d D2 d | "tr"c>(B/2c/4) dD | cA,dB, | eCfd | c/d/e dB | AECA, :|

